img/icons/order_dateIcon.svg

<svg width="24" height="24" viewBox="0 0 24 24" fill="none" xmlns="http://www.w3.org/2000/svg">
<path fill-rule="evenodd" clip-rule="evenodd" d="M8.09619 4.0326C7.9421 4.08644 7.80961 4.20364 7.73979 4.34785C7.68466 4.46176 7.67406 4.54169 7.67406 4.84409V5.20455L7.18118 5.22394C6.49627 5.25092 6.14237 5.3331 5.6624 5.57662C4.87468 5.97626 4.3109 6.6925 4.06792 7.60227L4 7.85654V12.6094V17.3622L4.07117 17.6418C4.14818 17.9442 4.35543 18.411 4.51693 18.6457C4.65833 18.8512 4.99784 19.2049 5.2116 19.3694C5.61102 19.6767 6.16857 19.9062 6.67769 19.9728C6.86055 19.9968 8.51037 20.0043 12.1611 19.9978L17.383 19.9885L17.6251 19.9196C18.1819 19.7612 18.6005 19.5354 18.965 19.1968C19.5095 18.691 19.8247 18.1212 19.9465 17.4228C20.018 17.0123 20.0178 8.20485 19.9462 7.79426C19.8351 7.15738 19.5489 6.61558 19.0711 6.13739C18.4145 5.48037 17.7113 5.21828 16.5966 5.21515L16.3105 5.21434L16.2995 4.8105C16.2889 4.42024 16.2854 4.40216 16.1948 4.2739C15.9215 3.88717 15.3575 3.92019 15.1405 4.33566C15.0601 4.4895 15.0535 4.52962 15.0535 4.85831V5.21434H11.9891H8.92481V4.85831C8.92481 4.52962 8.91812 4.4895 8.83776 4.33566C8.6962 4.06471 8.3772 3.93435 8.09619 4.0326ZM7.67406 7.13836C7.67406 7.85705 7.6911 7.95782 7.83972 8.11714C8.15885 8.45925 8.76937 8.32114 8.89216 7.87903C8.90992 7.81508 8.92453 7.47075 8.92462 7.11391L8.92481 6.46509H11.9891H15.0535L15.0536 7.11391C15.0537 7.47075 15.0683 7.81508 15.0861 7.87903C15.2089 8.32114 15.8194 8.45925 16.1385 8.11714C16.2873 7.95764 16.3042 7.85739 16.3042 7.13377V6.45589L16.7498 6.47415C16.9995 6.48435 17.2767 6.5143 17.3804 6.54226C17.8774 6.67615 18.3247 7.04878 18.5546 7.52028C18.6916 7.80107 18.742 8.06952 18.7426 8.52101L18.7432 8.90405H11.9891H5.23511L5.23564 8.52101C5.2363 8.06952 5.2867 7.80107 5.42363 7.52028C5.69632 6.96095 6.2125 6.58891 6.84473 6.49598C6.93109 6.48329 7.15306 6.47112 7.33793 6.469L7.67406 6.46509V7.13836ZM18.7432 13.6363C18.7432 17.0178 18.7414 17.1248 18.6805 17.3628C18.5254 17.9692 18.0589 18.4655 17.4596 18.6618L17.2266 18.7381H11.9891H6.75164L6.51869 18.6618C6.24174 18.5711 5.88265 18.3393 5.7032 18.1355C5.51697 17.9239 5.36925 17.6422 5.29755 17.3619C5.23699 17.125 5.23511 17.0137 5.23511 13.6363V10.1548H11.9891H18.7432V13.6363ZM14.8346 15.7392C14.3143 15.9646 14.3185 16.6735 14.8414 16.8916C14.9353 16.9308 15.0976 16.94 15.6856 16.9394C16.5056 16.9386 16.5778 16.9233 16.7644 16.7109C17.0316 16.4066 16.9383 15.9491 16.5718 15.7665C16.4201 15.6909 16.402 15.6894 15.6805 15.6906C15.0934 15.6915 14.9218 15.7014 14.8346 15.7392Z" fill="#8C8D92"/>
</svg>

<svg width="24" height="24" fill="none" xmlns="http://www.w3.org/2000/svg"><path fill-rule="evenodd" clip-rule="evenodd" d="M8.096 4.033a.634.634 0 0 0-.356.315c-.055.114-.066.194-.066.496v.36l-.493.02c-.685.027-1.039.11-1.519.353-.787.4-1.351 1.115-1.594 2.025L4 7.857v9.505l.071.28c.077.302.284.769.446 1.004.141.205.48.559.695.723.399.308.957.537 1.466.604.183.024 1.832.031 5.483.025l5.222-.01.242-.068c.557-.159.976-.385 1.34-.723.544-.506.86-1.076.982-1.774.071-.41.07-9.218 0-9.629a3.012 3.012 0 0 0-.876-1.657c-.657-.657-1.36-.919-2.474-.922h-.287l-.01-.404c-.011-.39-.015-.409-.105-.537a.613.613 0 0 0-1.055.062c-.08.153-.087.194-.087.522v.356H8.925v-.356c0-.328-.007-.369-.087-.522a.616.616 0 0 0-.742-.303Zm-.422 3.105c0 .72.017.82.166.98.319.341.93.203 1.052-.239.018-.064.033-.408.033-.765v-.649h6.128v.649c0 .357.015.701.033.765.123.442.733.58 1.053.238.148-.16.165-.26.165-.983v-.678l.446.018c.25.01.527.04.63.068a1.89 1.89 0 0 1 1.175.978c.137.281.187.55.188 1.001v.383H5.235v-.383c.001-.451.052-.72.189-1 .272-.56.788-.932 1.42-1.025.087-.013.31-.025.494-.027l.336-.004v.673Zm11.07 6.498c0 3.382-.003 3.489-.064 3.727a1.866 1.866 0 0 1-1.22 1.299l-.233.076H6.752l-.233-.076a2.15 2.15 0 0 1-.816-.526 1.932 1.932 0 0 1-.405-.774c-.061-.237-.063-.348-.063-3.726v-3.481h13.508v3.481Zm-3.91 2.103a.62.62 0 0 0 .007 1.153c.094.039.257.048.845.047.82 0 .892-.016 1.078-.228a.6.6 0 0 0-.192-.944c-.152-.076-.17-.078-.891-.076-.588 0-.76.01-.846.048Z" fill="#8C8D92"/></svg>
